X: 7957
T: Condon's Frolics
R: jig
M: 6/8
K: Adorian
|eAB c2d|edc Bcd|eAB c2d|e2e eag|
eAB c2c|edc B2B|GBd gdB|1 ABA ~A3:|2 ABA A2d||
|:eaa egg|ced cBA|cBc dcd|e2d efg|
eaa egg|ced cBA|GBd gdB|1 ABA A2d:|2 ABA ABd||

